X:3
T:m - l,
M:C|
L:1/4
%%postscript domovel_fim
%%postscript 2.5 pos_clavedomovel
K:Em bass middle=A
B/BB/ A/GA/ | G2E2 | B/BB/ A/GA/ | G2z2 |
G/EA/ G/BA/ | E/GG/ A2 | G/EA/ B/AG/ | E/GG/ G2 |]
%%postscript restaureclaves

%%scale 1.3


